X:272
T:Reel 272
M:4/4
K:Gmaj
L:1/8
dc|B>G (3GGG BGdc|B>G (3GGG d2gc'|bgg (3ggg dcBG|ABAG ABcA|BGGB AGGDED|BGBd g2fg|ac' (3d'e'd' c'aag| (3fed ef gedc| (3BdB AG  (3Bcd ge|dBGB AGEG|Bc (3BBB d2BG| (3ABA =fd c2|
